X: 4
T: An Paistin Fionn
R: hornpipe
M: 4/4
L: 1/8
K: Edor
F2 Bc dBBA|B3c dcBA|G2 Bc dBBA|Beed e2(3CDE|F2 Bc dBBA|Bega b3 a|e2 ed BA FA|1 E2 ED E2 (3CDE:|2 E2 ED E2 (3Bcd||


Tune 5675	Setting 17673

